static/img/kroki/804b18e7887e926eb0ea920235e2c033.svg

<?xml version="1.0" encoding="us-ascii" standalone="no"?><svg xmlns="http://www.w3.org/2000/svg" xmlns:xlink="http://www.w3.org/1999/xlink" contentStyleType="text/css" height="252px" preserveAspectRatio="none" style="width:747px;height:252px;" version="1.1" viewBox="0 0 747 252" width="747px" zoomAndPan="magnify"><defs/><g><!--class gcp_autoscaler--><g id="elem_gcp_autoscaler"><rect codeLine="22" fill="#3D176E" height="39.7891" id="gcp_autoscaler" rx="2.5" ry="2.5" style="stroke:#000D19;stroke-width:0.5;" width="165" x="155" y="7"/><ellipse cx="170" cy="26.8945" fill="#ADD1B2" rx="11" ry="11" style="stroke:#181818;stroke-width:1.0;"/><path d="M172.9688,32.5352 Q172.3906,32.832 171.75,32.9727 Q171.1094,33.1289 170.4063,33.1289 Q167.9063,33.1289 166.5781,31.4883 Q165.2656,29.832 165.2656,26.707 Q165.2656,23.582 166.5781,21.9258 Q167.9063,20.2695 170.4063,20.2695 Q171.1094,20.2695 171.75,20.4258 Q172.4063,20.582 172.9688,20.8789 L172.9688,23.5977 Q172.3438,23.0195 171.75,22.7539 Q171.1563,22.4727 170.5313,22.4727 Q169.1875,22.4727 168.5,23.5508 Q167.8125,24.6133 167.8125,26.707 Q167.8125,28.8008 168.5,29.8789 Q169.1875,30.9414 170.5313,30.9414 Q171.1563,30.9414 171.75,30.6758 Q172.3438,30.3945 172.9688,29.8164 L172.9688,32.5352 Z " fill="#000000"/><text fill="#D9B8FF" font-family="Helvetica" font-size="17" lengthAdjust="spacing" textLength="123" x="189" y="32.7798">gcp_autoscaler</text></g><!--class gcp_health_check--><g id="elem_gcp_health_check"><rect codeLine="24" fill="#3D176E" height="39.7891" id="gcp_health_check" rx="2.5" ry="2.5" style="stroke:#000D19;stroke-width:0.5;" width="189" x="7" y="206.58"/><ellipse cx="22" cy="226.4745" fill="#ADD1B2" rx="11" ry="11" style="stroke:#181818;stroke-width:1.0;"/><path d="M24.9688,232.1152 Q24.3906,232.412 23.75,232.5527 Q23.1094,232.7089 22.4063,232.7089 Q19.9063,232.7089 18.5781,231.0683 Q17.2656,229.412 17.2656,226.287 Q17.2656,223.162 18.5781,221.5058 Q19.9063,219.8495 22.4063,219.8495 Q23.1094,219.8495 23.75,220.0058 Q24.4063,220.162 24.9688,220.4589 L24.9688,223.1777 Q24.3438,222.5995 23.75,222.3339 Q23.1563,222.0527 22.5313,222.0527 Q21.1875,222.0527 20.5,223.1308 Q19.8125,224.1933 19.8125,226.287 Q19.8125,228.3808 20.5,229.4589 Q21.1875,230.5214 22.5313,230.5214 Q23.1563,230.5214 23.75,230.2558 Q24.3438,229.9745 24.9688,229.3964 L24.9688,232.1152 Z " fill="#000000"/><text fill="#D9B8FF" font-family="Helvetica" font-size="17" lengthAdjust="spacing" textLength="147" x="41" y="232.3598">gcp_health_check</text></g><!--class gcp_http_health_check--><g id="elem_gcp_http_health_check"><rect codeLine="26" fill="#3D176E" height="39.7891" id="gcp_http_health_check" rx="2.5" ry="2.5" style="stroke:#000D19;stroke-width:0.5;" width="233" x="231" y="206.58"/><ellipse cx="246" cy="226.4745" fill="#ADD1B2" rx="11" ry="11" style="stroke:#181818;stroke-width:1.0;"/><path d="M248.9688,232.1152 Q248.3906,232.412 247.75,232.5527 Q247.1094,232.7089 246.4063,232.7089 Q243.9063,232.7089 242.5781,231.0683 Q241.2656,229.412 241.2656,226.287 Q241.2656,223.162 242.5781,221.5058 Q243.9063,219.8495 246.4063,219.8495 Q247.1094,219.8495 247.75,220.0058 Q248.4063,220.162 248.9688,220.4589 L248.9688,223.1777 Q248.3438,222.5995 247.75,222.3339 Q247.1563,222.0527 246.5313,222.0527 Q245.1875,222.0527 244.5,223.1308 Q243.8125,224.1933 243.8125,226.287 Q243.8125,228.3808 244.5,229.4589 Q245.1875,230.5214 246.5313,230.5214 Q247.1563,230.5214 247.75,230.2558 Q248.3438,229.9745 248.9688,229.3964 L248.9688,232.1152 Z " fill="#000000"/><text fill="#D9B8FF" font-family="Helvetica" font-size="17" lengthAdjust="spacing" textLength="191" x="265" y="232.3598">gcp_http_health_check</text></g><!--class gcp_https_health_check--><g id="elem_gcp_https_health_check"><rect codeLine="28" fill="#3D176E" height="39.7891" id="gcp_https_health_check" rx="2.5" ry="2.5" style="stroke:#000D19;stroke-width:0.5;" width="241" x="499" y="206.58"/><ellipse cx="514" cy="226.4745" fill="#ADD1B2" rx="11" ry="11" style="stroke:#181818;stroke-width:1.0;"/><path d="M516.9688,232.1152 Q516.3906,232.412 515.75,232.5527 Q515.1094,232.7089 514.4063,232.7089 Q511.9063,232.7089 510.5781,231.0683 Q509.2656,229.412 509.2656,226.287 Q509.2656,223.162 510.5781,221.5058 Q511.9063,219.8495 514.4063,219.8495 Q515.1094,219.8495 515.75,220.0058 Q516.4063,220.162 516.9688,220.4589 L516.9688,223.1777 Q516.3438,222.5995 515.75,222.3339 Q515.1563,222.0527 514.5313,222.0527 Q513.1875,222.0527 512.5,223.1308 Q511.8125,224.1933 511.8125,226.287 Q511.8125,228.3808 512.5,229.4589 Q513.1875,230.5214 514.5313,230.5214 Q515.1563,230.5214 515.75,230.2558 Q516.3438,229.9745 516.9688,229.3964 L516.9688,232.1152 Z " fill="#000000"/><text fill="#D9B8FF" font-family="Helvetica" font-size="17" lengthAdjust="spacing" textLength="199" x="533" y="232.3598">gcp_https_health_check</text></g><!--class gcp_instance_group--><g id="elem_gcp_instance_group"><rect codeLine="30" fill="#3D176E" height="39.7891" id="gcp_instance_group" rx="2.5" ry="2.5" style="stroke:#000D19;stroke-width:0.5;" width="206" x="355.5" y="7"/><ellipse cx="370.5" cy="26.8945" fill="#ADD1B2" rx="11" ry="11" style="stroke:#181818;stroke-width:1.0;"/><path d="M373.4688,32.5352 Q372.8906,32.832 372.25,32.9727 Q371.6094,33.1289 370.9063,33.1289 Q368.4063,33.1289 367.0781,31.4883 Q365.7656,29.832 365.7656,26.707 Q365.7656,23.582 367.0781,21.9258 Q368.4063,20.2695 370.9063,20.2695 Q371.6094,20.2695 372.25,20.4258 Q372.9063,20.582 373.4688,20.8789 L373.4688,23.5977 Q372.8438,23.0195 372.25,22.7539 Q371.6563,22.4727 371.0313,22.4727 Q369.6875,22.4727 369,23.5508 Q368.3125,24.6133 368.3125,26.707 Q368.3125,28.8008 369,29.8789 Q369.6875,30.9414 371.0313,30.9414 Q371.6563,30.9414 372.25,30.6758 Q372.8438,30.3945 373.4688,29.8164 L373.4688,32.5352 Z " fill="#000000"/><text fill="#D9B8FF" font-family="Helvetica" font-size="17" lengthAdjust="spacing" textLength="164" x="389.5" y="32.7798">gcp_instance_group</text></g><!--class gcp_instance_group_manager--><g id="elem_gcp_instance_group_manager"><rect codeLine="32" fill="#3D176E" height="39.7891" id="gcp_instance_group_manager" rx="2.5" ry="2.5" style="stroke:#000D19;stroke-width:0.5;" width="290" x="202.5" y="106.79"/><ellipse cx="217.5" cy="126.6845" fill="#ADD1B2" rx="11" ry="11" style="stroke:#181818;stroke-width:1.0;"/><path d="M220.4688,132.3252 Q219.8906,132.622 219.25,132.7627 Q218.6094,132.9189 217.9063,132.9189 Q215.4063,132.9189 214.0781,131.2783 Q212.7656,129.622 212.7656,126.497 Q212.7656,123.372 214.0781,121.7158 Q215.4063,120.0595 217.9063,120.0595 Q218.6094,120.0595 219.25,120.2158 Q219.9063,120.372 220.4688,120.6689 L220.4688,123.3877 Q219.8438,122.8095 219.25,122.5439 Q218.6563,122.2627 218.0313,122.2627 Q216.6875,122.2627 216,123.3408 Q215.3125,124.4033 215.3125,126.497 Q215.3125,128.5908 216,129.6689 Q216.6875,130.7314 218.0313,130.7314 Q218.6563,130.7314 219.25,130.4658 Q219.8438,130.1845 220.4688,129.6064 L220.4688,132.3252 Z " fill="#000000"/><text fill="#D9B8FF" font-family="Helvetica" font-size="17" lengthAdjust="spacing" textLength="248" x="236.5" y="132.5698">gcp_instance_group_manager</text></g><!--link gcp_autoscaler to gcp_instance_group_manager--><g id="link_gcp_autoscaler_gcp_instance_group_manager"><path codeLine="34" d="M259.23,47.22 C278.52,64.36 302.0568,85.2824 321.3268,102.4224 " fill="none" id="gcp_autoscaler-to-gcp_instance_group_manager" style="stroke:#1A83AF;stroke-width:2.0;"/><polygon fill="#1A83AF" points="325.81,106.41,321.7437,97.4398,322.074,103.087,316.4268,103.4173,325.81,106.41" style="stroke:#1A83AF;stroke-width:2.0;"/></g><!--link gcp_instance_group to gcp_instance_group_manager--><g id="link_gcp_instance_group_gcp_instance_group_manager"><path codeLine="35" d="M436.57,47.22 C417.11,64.36 393.3315,85.3031 373.8815,102.4431 " fill="none" id="gcp_instance_group-to-gcp_instance_group_manager" style="stroke:#1A83AF;stroke-width:2.0;"/><polygon fill="#1A83AF" points="369.38,106.41,378.7769,103.4607,373.1313,103.1043,373.4877,97.4586,369.38,106.41" style="stroke:#1A83AF;stroke-width:2.0;"/></g><!--link gcp_instance_group_manager to gcp_health_check--><g id="link_gcp_instance_group_manager_gcp_health_check"><path codeLine="36" d="M298.9,147.01 C255.77,164.15 198.6753,186.8428 155.5753,203.9828 " fill="none" id="gcp_instance_group_manager-to-gcp_health_check" style="stroke:#1A83AF;stroke-width:2.0;"/><polygon fill="#1A83AF" points="150,206.2,159.8411,206.5911,154.6461,204.3523,156.8848,199.1573,150,206.2" style="stroke:#1A83AF;stroke-width:2.0;"/></g><!--link gcp_instance_group_manager to gcp_http_health_check--><g id="link_gcp_instance_group_manager_gcp_http_health_check"><path codeLine="37" d="M347.5,147.01 C347.5,164.15 347.5,183.06 347.5,200.2 " fill="none" id="gcp_instance_group_manager-to-gcp_http_health_check" style="stroke:#1A83AF;stroke-width:2.0;"/><polygon fill="#1A83AF" points="347.5,206.2,351.5,197.2,347.5,201.2,343.5,197.2,347.5,206.2" style="stroke:#1A83AF;stroke-width:2.0;"/></g><!--link gcp_instance_group_manager to gcp_https_health_check--><g id="link_gcp_instance_group_manager_gcp_https_health_check"><path codeLine="38" d="M401.24,147.01 C448.92,164.15 512.5741,187.0292 560.2241,204.1692 " fill="none" id="gcp_instance_group_manager-to-gcp_https_health_check" style="stroke:#1A83AF;stroke-width:2.0;"/><polygon fill="#1A83AF" points="565.87,206.2,558.7551,199.3898,561.1651,204.5076,556.0473,206.9176,565.87,206.2" style="stroke:#1A83AF;stroke-width:2.0;"/></g><!--SRC=[dP31Qi9048RlFiM2Py5KMlLII0LfBr9gRwM4SNSsMPBiXjsnOalVlQPQMJUQOA_pVpFppMHA8CEoeYqhiLoXTJsNArs1XPB5rfhDp1J6ihwK84VZC9mRJPt00afaZrXy82aE8V6QAPvhT8xTUD43y3orPgt5VZnPq6uNeIQFcXNWN4narMfDwCc8wMeYPKY6G_iZ4Otli84PAz0UaE5mAA9fY7IkQhtxI2pL9xB8Vzh243Oq6oj-gLRBcl0a6uV-vHSTdq48fLDswzLUzavMepsfBpCGPbFJ4Whdht645WrjAvmrhiBfHCZnMVZf4iphpx6KLmcioJWEnKxbg_Vj1Hb2GLd2C-Hv615rvguDKDeHQ8v9xLQrXaa96jA3NI0yUEj7yMGKpzy7zosjlJCh_zzw56gCy0- -hZ7yvzNTfz_-0G00]--></g></svg>

<svg xmlns="http://www.w3.org/2000/svg" width="747" height="252" viewBox="0 0 747 252"><rect width="165" height="39.789" x="155" y="7" fill="#3D176E" rx="2.5" ry="2.5" style="stroke:#000d19;stroke-width:.5"/><circle cx="170" cy="26.895" r="11" fill="#ADD1B2" style="stroke:#181818;stroke-width:1"/><path d="M172.969 32.535q-.578.297-1.219.438-.64.156-1.344.156-2.5 0-3.828-1.64-1.312-1.657-1.312-4.782t1.312-4.781q1.328-1.656 3.828-1.656.703 0 1.344.156.656.156 1.219.453v2.719q-.625-.578-1.219-.844-.594-.281-1.219-.281-1.344 0-2.031 1.078-.687 1.062-.687 3.156t.687 3.172q.688 1.062 2.031 1.062.625 0 1.219-.265.594-.281 1.219-.86z"/><text x="189" y="32.78" fill="#D9B8FF" font-family="Helvetica" font-size="17" textLength="123">gcp_autoscaler</text><rect width="189" height="39.789" x="7" y="206.58" fill="#3D176E" rx="2.5" ry="2.5" style="stroke:#000d19;stroke-width:.5"/><circle cx="22" cy="226.475" r="11" fill="#ADD1B2" style="stroke:#181818;stroke-width:1"/><path d="M24.969 232.115q-.578.297-1.219.438-.64.156-1.344.156-2.5 0-3.828-1.64-1.312-1.657-1.312-4.782t1.312-4.781q1.328-1.656 3.828-1.656.703 0 1.344.156.656.156 1.219.453v2.719q-.625-.578-1.219-.844-.594-.281-1.219-.281-1.343 0-2.031 1.078-.687 1.062-.687 3.156t.687 3.172q.688 1.062 2.031 1.062.625 0 1.219-.265.594-.281 1.219-.86z"/><text x="41" y="232.36" fill="#D9B8FF" font-family="Helvetica" font-size="17" textLength="147">gcp_health_check</text><rect width="233" height="39.789" x="231" y="206.58" fill="#3D176E" rx="2.5" ry="2.5" style="stroke:#000d19;stroke-width:.5"/><circle cx="246" cy="226.475" r="11" fill="#ADD1B2" style="stroke:#181818;stroke-width:1"/><path d="M248.969 232.115q-.578.297-1.219.438-.64.156-1.344.156-2.5 0-3.828-1.64-1.312-1.657-1.312-4.782t1.312-4.781q1.328-1.656 3.828-1.656.703 0 1.344.156.656.156 1.219.453v2.719q-.625-.578-1.219-.844-.594-.281-1.219-.281-1.344 0-2.031 1.078-.687 1.062-.687 3.156t.687 3.172q.688 1.062 2.031 1.062.625 0 1.219-.265.594-.281 1.219-.86z"/><text x="265" y="232.36" fill="#D9B8FF" font-family="Helvetica" font-size="17" textLength="191">gcp_http_health_check</text><rect width="241" height="39.789" x="499" y="206.58" fill="#3D176E" rx="2.5" ry="2.5" style="stroke:#000d19;stroke-width:.5"/><circle cx="514" cy="226.475" r="11" fill="#ADD1B2" style="stroke:#181818;stroke-width:1"/><path d="M516.969 232.115q-.578.297-1.219.438-.64.156-1.344.156-2.5 0-3.828-1.64-1.312-1.657-1.312-4.782t1.312-4.781q1.328-1.656 3.828-1.656.703 0 1.344.156.656.156 1.219.453v2.719q-.625-.578-1.219-.844-.594-.281-1.219-.281-1.343 0-2.031 1.078-.687 1.062-.687 3.156t.687 3.172q.688 1.062 2.031 1.062.625 0 1.219-.265.594-.281 1.219-.86z"/><text x="533" y="232.36" fill="#D9B8FF" font-family="Helvetica" font-size="17" textLength="199">gcp_https_health_check</text><rect width="206" height="39.789" x="355.5" y="7" fill="#3D176E" rx="2.5" ry="2.5" style="stroke:#000d19;stroke-width:.5"/><circle cx="370.5" cy="26.895" r="11" fill="#ADD1B2" style="stroke:#181818;stroke-width:1"/><path d="M373.469 32.535q-.578.297-1.219.438-.64.156-1.344.156-2.5 0-3.828-1.64-1.312-1.657-1.312-4.782t1.312-4.781q1.328-1.656 3.828-1.656.703 0 1.344.156.656.156 1.219.453v2.719q-.625-.578-1.219-.844-.594-.281-1.219-.281-1.344 0-2.031 1.078-.687 1.062-.687 3.156t.687 3.172q.688 1.062 2.031 1.062.625 0 1.219-.265.594-.281 1.219-.86z"/><text x="389.5" y="32.78" fill="#D9B8FF" font-family="Helvetica" font-size="17" textLength="164">gcp_instance_group</text><rect width="290" height="39.789" x="202.5" y="106.79" fill="#3D176E" rx="2.5" ry="2.5" style="stroke:#000d19;stroke-width:.5"/><circle cx="217.5" cy="126.684" r="11" fill="#ADD1B2" style="stroke:#181818;stroke-width:1"/><path d="M220.469 132.325q-.578.297-1.219.438-.64.156-1.344.156-2.5 0-3.828-1.64-1.312-1.657-1.312-4.782t1.312-4.781q1.328-1.656 3.828-1.656.703 0 1.344.156.656.156 1.219.453v2.719q-.625-.579-1.219-.844-.594-.281-1.219-.281-1.344 0-2.031 1.078-.687 1.062-.687 3.156t.687 3.172q.688 1.062 2.031 1.062.625 0 1.219-.265.594-.281 1.219-.86z"/><text x="236.5" y="132.57" fill="#D9B8FF" font-family="Helvetica" font-size="17" textLength="248">gcp_instance_group_manager</text><path fill="none" d="M259.23 47.22c19.29 17.14 42.827 38.062 62.097 55.202" style="stroke:#1a83af;stroke-width:2"/><path fill="#1A83AF" d="m325.81 106.41-4.066-8.97.33 5.647-5.647.33z" style="stroke:#1a83af;stroke-width:2"/><path fill="none" d="M436.57 47.22c-19.46 17.14-43.238 38.083-62.688 55.223" style="stroke:#1a83af;stroke-width:2"/><path fill="#1A83AF" d="m369.38 106.41 9.397-2.95-5.646-.356.357-5.645z" style="stroke:#1a83af;stroke-width:2"/><path fill="none" d="M298.9 147.01a715525 715525 0 0 0-143.325 56.973" style="stroke:#1a83af;stroke-width:2"/><path fill="#1A83AF" d="m150 206.2 9.841.391-5.195-2.239 2.239-5.195z" style="stroke:#1a83af;stroke-width:2"/><path fill="none" d="M347.5 147.01v53.19" style="stroke:#1a83af;stroke-width:2"/><path fill="#1A83AF" d="m347.5 206.2 4-9-4 4-4-4z" style="stroke:#1a83af;stroke-width:2"/><path fill="none" d="M401.24 147.01c47.68 17.14 111.334 40.02 158.984 57.16" style="stroke:#1a83af;stroke-width:2"/><path fill="#1A83AF" d="m565.87 206.2-7.115-6.81 2.41 5.118-5.118 2.41z" style="stroke:#1a83af;stroke-width:2"/></svg>
